packages/admin/admin-icons/icons/rte-emoji.svg

<svg width="16" height="16" fill="none" viewBox="0 0 16 16">
  <path fill="#242424" fill-rule="evenodd" d="M7.992.001C3.576.001 0 3.585 0 8.001s3.576 8 7.992 8c4.424 0 8.008-3.584 8.008-8s-3.584-8-8.008-8ZM8 14.401a6.398 6.398 0 0 1-6.4-6.4c0-3.536 2.864-6.4 6.4-6.4 3.536 0 6.4 2.864 6.4 6.4 0 3.536-2.864 6.4-6.4 6.4Zm2.8-7.2c.664 0 1.2-.536 1.2-1.2 0-.664-.536-1.2-1.2-1.2-.664 0-1.2.536-1.2 1.2 0 .664.536 1.2 1.2 1.2Zm-5.6 0c.664 0 1.2-.536 1.2-1.2 0-.664-.536-1.2-1.2-1.2-.664 0-1.2.536-1.2 1.2 0 .664.536 1.2 1.2 1.2Zm2.8 5.2a4.397 4.397 0 0 0 4.088-2.8H3.912A4.397 4.397 0 0 0 8 12.401Z" clip-rule="evenodd"/>
</svg>

<svg width="16" height="16" viewBox="0 0 16 16" fill="none" xmlns="http://www.w3.org/2000/svg">
<path fill-rule="evenodd" clip-rule="evenodd" d="M7.992 0C3.576 0 0 3.584 0 8C0 12.416 3.576 16 7.992 16C12.416 16 16 12.416 16 8C16 3.584 12.416 0 7.992 0ZM8 14.4C4.464 14.4 1.6 11.536 1.6 8C1.6 4.464 4.464 1.6 8 1.6C11.536 1.6 14.4 4.464 14.4 8C14.4 11.536 11.536 14.4 8 14.4ZM10.8 7.2C11.464 7.2 12 6.664 12 6C12 5.336 11.464 4.8 10.8 4.8C10.136 4.8 9.6 5.336 9.6 6C9.6 6.664 10.136 7.2 10.8 7.2ZM5.2 7.2C5.864 7.2 6.4 6.664 6.4 6C6.4 5.336 5.864 4.8 5.2 4.8C4.536 4.8 4 5.336 4 6C4 6.664 4.536 7.2 5.2 7.2ZM8 12.4C9.864 12.4 11.448 11.232 12.088 9.6H3.912C4.552 11.232 6.136 12.4 8 12.4Z" fill="#242424"/>
</svg>
